X: 3337
T: Belles Of Tipperary, The
R: reel
M: 4/4
K: Dmajor
|:DA,~A2 DEFA|defe dBBA|B2AF ABdf|afde fee2|
dA~A2 DEFA|d2fe dBBA|B2AF A2dB|AFEG FDD2:|
|:faab afdf|gfed (3Bcd ef|g2gf gbag|fgaf effe|
dB~B2 AF~F2|DFBF ABdf|afef dBAF|A2ag fdd2:|

